X:12859
%16097
T:Summers Flowers
M:2/4
L:1/8
C:Bishop
S:Armitt MS
N:The notes marked with an asterisk have dynamic markings underneath,
N:either a very small diminuendo or an accent mark.  The DC is underneath
N:the stave, in the corner of the page
K:Cmaj
(C/2D/2)E/2F/2 GA|AGzA/2B/2|cE/2E/2 EG|G>E D/2F/2E/2D/2|(C/2D/2E/2F/2) G
A|("*"(AG) zA/2B/2|c>E (G/2F/2)D/2B,/2|CE/2D/2 C
%Error : Bar 7 is 3/8 not 2/4
||C
%Error : Bar 8 is 1/8 not 2/4
|(B,/2C/2D/2E/2) FF|
%Error : Guitar chord name not properly closed
F""

%Error : *'s in middle of line ignored

%Error : Guitar chord name not properly closed
"[C2B2]"
D
%Error : Bar 10 is 1/4 not 2/4
|C/2D/2E/2F/2 GA|AGzG|^F/2G/2A/2B/2 cc|(c/2d/2)(B/2c/2) (A/2B/2)(G/2A/2
)|BAG^F|GA/2G/2 =F/2E/2F/2"GC"D/2||


